images_sukapura_svg/cmd/sc_splittable.svg

<svg height="16" viewBox="0 0 16 16" width="16" xmlns="http://www.w3.org/2000/svg" xmlns:xlink="http://www.w3.org/1999/xlink"><linearGradient id="a" gradientUnits="userSpaceOnUse" x1="8" x2="8" xlink:href="#b" y1="10" y2="4"/><linearGradient id="b"><stop offset="0" stop-color="#c20618"/><stop offset="1" stop-color="#ff6961" stop-opacity=".966805"/></linearGradient><linearGradient id="c" gradientUnits="userSpaceOnUse" x1=".500379" x2="7.000379" xlink:href="#b" y1="6.500379" y2="6.500379"/><linearGradient id="d" gradientUnits="userSpaceOnUse" x1="7.007434" x2=".507434" xlink:href="#b" y1="6.500379" y2="6.500379"/><path d="m1 1v3h14v-2.9921875zm0 9v4h14v-4z" fill="#fff"/><path d="m5 1v3h-4v1h14v-1h-4v-3h-1v3h-4v-3zm0 7.9960938v.0039062h-.8652344-3.1347656v1h3.9238281.0761719v.261719c.018856.104022.0269564.208888.0214844.310547-.00261.04844-.0145684.092199-.0214844.138672v3.289062h1v-4h4v4h1v-3.339844c-.0034-.02992-.012022-.05718-.013672-.08789-.003478-.064576.007135-.131272.013672-.197266v-.375h.083984 3.916016v-1h-3.126953-.873047v-.0039062l-1 .0019531v.0019531h-4v-.0019531z" fill="#bababa"/><path d="m0 0v5h1v-1-3h4 1 4 1 4v3 1h1v-5zm0 9v1.105469 4.394531c-.00038442.276301.22369855.500384.5.5h15c.276301.000384.500384-.223699.5-.5v-4.5-.8886719-.1113281h-1v1h.113281l-.111328.111328v3.890625h-14.00390612v-3.896484h.00195312v-.105469-1z" fill="#69696e"/><path d="m1 4v1h.5 1.5 1 3 1 4 1 2v-1zm0 5v1h14v-1h-2-1-4-1-3-1-1.5z" fill="url(#a)"/><g transform="matrix(0 1 -1 0 15.000379 -1.007434)"><path d="m6.8710938-1.0078125-2.4355469 2.4355469a1.0082374 1.0082374 0 0 0 -.0019531.0019531c-.416144.4183218-.5498288 1.0934483-.3242188 1.6386719s.7966639.9277236 1.3867188.9296875a1.0082374 1.0082374 0 0 0 .0039062 0h.4921875v1.0019531h4.0156245v-1.0019531h.492188c.804352.0000896 1.530788-.7487684 1.505859-1.5527344a1.0082374 1.0082374 0 0 0 0-.0039063c-.013069-.3780011-.175266-.7488262-.443359-1.015625l-2.4335938-2.4335937z" fill="#fff" fill-opacity=".784314" transform="matrix(0 -1 1 0 1.007434 15.000379)"/><path d="m3.484375 4.0019531a.49823071.49823071 0 0 0 -.3359375.1464844l-2.5 2.5a.49823071.49823071 0 0 0 0 .703125l2.5 2.5a.49823071.49823071 0 0 0 .8496094-.3515625v-1.5h2.5019531c.277 0 .5-.223.5-.5v-1c0-.277-.223-.5-.5-.5h-2.5019531v-1.5a.49823071.49823071 0 0 0 -.5136719-.4980469z" fill="url(#d)"/><g transform="matrix(-1 0 0 1 16.007813 0)"><path d="m5.9921875 9v.9941406h-.4921875a1.0082374 1.0082374 0 0 0 -.0039062 0c-.5900549.0019639-1.1611088.3844644-1.3867188.9296874-.22561.545224-.0919252 1.22035.3242188 1.638672a1.0082374 1.0082374 0 0 1 .0019531.001953l2.4355469 2.435547h2.2578124l2.4335938-2.433594c.268093-.266799.43029-.637624.443359-1.015625a1.0082374 1.0082374 0 0 0 0-.003906c.024929-.803966-.701507-1.552824-1.505859-1.5527344h-.492188v-.9941406z" fill="#fff" fill-opacity=".784314" transform="matrix(0 -1 -1 0 15.000379 15.000379)"/><path d="m3.484375 4.0019531a.49823071.49823071 0 0 0 -.3359375.1464844l-2.5 2.5a.49823071.49823071 0 0 0 0 .703125l2.5 2.5a.49823071.49823071 0 0 0 .8496094-.3515625v-1.5h2.5019531c.277 0 .5-.223.5-.5v-1c0-.277-.223-.5-.5-.5h-2.5019531v-1.5a.49823071.49823071 0 0 0 -.5136719-.4980469z" fill="url(#c)"/></g></g></svg>

<?xml version="1.0" encoding="UTF-8" standalone="no"?>
<svg
   xmlns:dc="http://purl.org/dc/elements/1.1/"
   xmlns:cc="http://creativecommons.org/ns#"
   xmlns:rdf="http://www.w3.org/1999/02/22-rdf-syntax-ns#"
   xmlns:svg="http://www.w3.org/2000/svg"
   xmlns="http://www.w3.org/2000/svg"
   xmlns:xlink="http://www.w3.org/1999/xlink"
   xmlns:sodipodi="http://sodipodi.sourceforge.net/DTD/sodipodi-0.dtd"
   xmlns:inkscape="http://www.inkscape.org/namespaces/inkscape"
   viewBox="0 0 16 16"
   version="1.1"
   id="svg14"
   sodipodi:docname="sc_splittable.svg"
   inkscape:export-filename="/home/rizmut/Documents/Rizmut/Github/libreoffice-style-sukapura/images_sukapura/cmd/sc_splittable.png"
   inkscape:export-xdpi="96"
   inkscape:export-ydpi="96"
   inkscape:version="0.92.3 (2405546, 2018-03-11)"
   width="16"
   height="16">
  <metadata
     id="metadata20">
    <rdf:RDF>
      <cc:Work
         rdf:about="">
        <dc:format>image/svg+xml</dc:format>
        <dc:type
           rdf:resource="http://purl.org/dc/dcmitype/StillImage" />
        <dc:title />
      </cc:Work>
    </rdf:RDF>
  </metadata>
  <defs
     id="defs18">
    <filter
       style="color-interpolation-filters:sRGB"
       id="b"
       height="1.094553"
       width="1.097492"
       x="-0.048746001"
       y="-0.047277">
      <feGaussianBlur
         stdDeviation=".36559322"
         id="feGaussianBlur957" />
    </filter>
    <linearGradient
       gradientTransform="translate(-41,-2)"
       id="a"
       gradientUnits="userSpaceOnUse"
       x1="12"
       x2="12"
       y1="3"
       y2="21">
      <stop
         offset="0"
         stop-color="#efefef"
         id="stop948" />
      <stop
         offset=".33333334"
         stop-color="#fff"
         id="stop950" />
      <stop
         offset=".8888889"
         stop-color="#fff"
         id="stop952" />
      <stop
         offset="1"
         stop-color="#f5f5f5"
         id="stop954" />
    </linearGradient>
    <linearGradient
       gradientTransform="translate(32,-5)"
       id="a-3"
       gradientUnits="userSpaceOnUse"
       x1="14"
       x2="13.79661"
       y1="22"
       y2="2.1355929">
      <stop
         offset="0"
         stop-color="#0040dd"
         id="stop1604" />
      <stop
         offset="1"
         stop-color="#0a84ff"
         id="stop1606" />
    </linearGradient>
    <filter
       style="color-interpolation-filters:sRGB"
       id="b-6"
       height="1.094553"
       width="1.097492"
       x="-0.048746001"
       y="-0.047277">
      <feGaussianBlur
         stdDeviation=".36559322"
         id="feGaussianBlur957-7" />
    </filter>
    <linearGradient
       inkscape:collect="always"
       xlink:href="#linearGradient1846"
       id="linearGradient966"
       x1="8"
       y1="10"
       x2="8"
       y2="4"
       gradientUnits="userSpaceOnUse" />
    <linearGradient
       inkscape:collect="always"
       id="linearGradient1846">
      <stop
         style="stop-color:#c20618;stop-opacity:1"
         offset="0"
         id="stop1842" />
      <stop
         style="stop-color:#ff6961;stop-opacity:0.96680498"
         offset="1"
         id="stop1844" />
    </linearGradient>
    <linearGradient
       inkscape:collect="always"
       xlink:href="#linearGradient1846"
       id="linearGradient983"
       x1="0.50037891"
       y1="6.5003791"
       x2="7.0003791"
       y2="6.5003791"
       gradientUnits="userSpaceOnUse" />
    <linearGradient
       inkscape:collect="always"
       xlink:href="#linearGradient1846"
       id="linearGradient920"
       gradientUnits="userSpaceOnUse"
       x1="7.0074339"
       y1="6.5003791"
       x2="0.50743413"
       y2="6.5003791" />
  </defs>
  <sodipodi:namedview
     pagecolor="#ffffff"
     bordercolor="#666666"
     borderopacity="1"
     objecttolerance="10"
     gridtolerance="10"
     guidetolerance="10"
     inkscape:pageopacity="0"
     inkscape:pageshadow="2"
     inkscape:window-width="1366"
     inkscape:window-height="685"
     id="namedview16"
     showgrid="true"
     inkscape:zoom="22.627417"
     inkscape:cx="3.2049688"
     inkscape:cy="6.812193"
     inkscape:window-x="0"
     inkscape:window-y="0"
     inkscape:window-maximized="1"
     inkscape:current-layer="g1014"
     inkscape:snap-global="true">
    <inkscape:grid
       type="xygrid"
       id="grid827"
       spacingx="0.5"
       spacingy="0.5"
       empspacing="2" />
  </sodipodi:namedview>
  <g
     id="g1014">
    <path
       style="fill:#ffffff"
       d="M 1 1 L 1 4 L 15 4 L 15 1.0078125 L 1 1 z M 1 10 L 1 14 L 15 14 L 15 10 L 1 10 z "
       id="path2-3" />
    <path
       id="path4-6"
       d="M 5 1 L 5 4 L 1 4 L 1 5 L 15 5 L 15 4 L 11 4 L 11 1 L 10 1 L 10 4 L 6 4 L 6 1 L 5 1 z M 5 8.9960938 L 5 9 L 4.1347656 9 L 1 9 L 1 10 L 4.9238281 10 L 5 10 L 5 10.261719 C 5.018856 10.365741 5.0269564 10.470607 5.0214844 10.572266 C 5.0188744 10.620706 5.006916 10.664465 5 10.710938 L 5 14 L 6 14 L 6 10 L 10 10 L 10 14 L 11 14 L 11 10.660156 C 10.9966 10.630236 10.987978 10.602976 10.986328 10.572266 C 10.98285 10.50769 10.993463 10.440994 11 10.375 L 11 10 L 11.083984 10 L 15 10 L 15 9 L 11.873047 9 L 11 9 L 11 8.9960938 L 10 8.9980469 L 10 9 L 6 9 L 6 8.9980469 L 5 8.9960938 z "
       style="fill:#bababa;fill-opacity:1" />
    <path
       style="fill:#69696e;fill-opacity:1"
       d="M 0 0 L 0 5 L 1 5 L 1 4 L 1 1 L 5 1 L 6 1 L 10 1 L 11 1 L 15 1 L 15 4 L 15 5 L 16 5 L 16 0 L 0 0 z M 0 9 L 0 10.105469 L 0 14.5 C -0.00038442 14.776301 0.22369855 15.000384 0.5 15 L 15.5 15 C 15.776301 15.000384 16.000384 14.776301 16 14.5 L 16 10 L 16 9.1113281 L 16 9 L 15 9 L 15 10 L 15.113281 10 L 15.001953 10.111328 L 15.001953 14.001953 L 0.99804688 14.001953 L 0.99804688 10.105469 L 1 10.105469 L 1 10 L 1 9 L 0 9 z "
       id="path929" />
    <path
       style="opacity:1;fill:url(#linearGradient966);fill-opacity:1;stroke:none;stroke-width:1;stroke-linecap:round;stroke-linejoin:round;stroke-miterlimit:4;stroke-dasharray:none;stroke-opacity:0"
       d="M 1 4 L 1 5 L 1.5 5 L 3 5 L 4 5 L 7 5 L 8 5 L 12 5 L 13 5 L 15 5 L 15 4 L 1 4 z M 1 9 L 1 10 L 15 10 L 15 9 L 13 9 L 12 9 L 8 9 L 7 9 L 4 9 L 3 9 L 1.5 9 L 1 9 z "
       id="rect955" />
    <g
       id="g928"
       transform="rotate(90,8.0039065,6.9964724)">
      <g
         id="g994">
        <path
           style="fill:#ffffff;fill-opacity:0.78431373;stroke:none;stroke-width:1px;stroke-linecap:butt;stroke-linejoin:miter;stroke-opacity:1"
           d="M 6.8710938 -1.0078125 L 4.4355469 1.4277344 A 1.0082374 1.0082374 0 0 0 4.4335938 1.4296875 C 4.0174498 1.8480093 3.883765 2.5231358 4.109375 3.0683594 C 4.334985 3.613583 4.9060389 3.996083 5.4960938 3.9980469 A 1.0082374 1.0082374 0 0 0 5.5 3.9980469 L 5.9921875 3.9980469 L 5.9921875 5 L 10.007812 5 L 10.007812 3.9980469 L 10.5 3.9980469 C 11.304352 3.9981365 12.030788 3.2492785 12.005859 2.4453125 A 1.0082374 1.0082374 0 0 0 12.005859 2.4414062 C 11.99279 2.0634051 11.830593 1.69258 11.5625 1.4257812 L 9.1289062 -1.0078125 L 6.8710938 -1.0078125 z "
           transform="rotate(-90,8.0039065,6.9964724)"
           id="path985" />
        <path
           id="path968"
           d="M 3.484375,4.0019531 A 0.49823071,0.49823071 0 0 0 3.1484375,4.1484375 l -2.5,2.5 a 0.49823071,0.49823071 0 0 0 0,0.703125 l 2.5,2.5 A 0.49823071,0.49823071 0 0 0 3.9980469,9.5 V 8 H 6.5 C 6.777,8 7,7.777 7,7.5 v -1 C 7,6.223 6.777,6 6.5,6 H 3.9980469 V 4.5 A 0.49823071,0.49823071 0 0 0 3.484375,4.0019531 Z"
           style="fill:url(#linearGradient920);fill-opacity:1;stroke:none;stroke-width:1px;stroke-linecap:butt;stroke-linejoin:miter;stroke-opacity:1"
           inkscape:connector-curvature="0" />
      </g>
      <g
         id="g1000"
         transform="matrix(-1,0,0,1,16.007813,-1.889586e-7)">
        <path
           style="fill:#ffffff;fill-opacity:0.78431373;stroke:none;stroke-width:1px;stroke-linecap:butt;stroke-linejoin:miter;stroke-opacity:1"
           d="M 5.9921875 9 L 5.9921875 9.9941406 L 5.5 9.9941406 A 1.0082374 1.0082374 0 0 0 5.4960938 9.9941406 C 4.9060389 9.9961045 4.334985 10.378605 4.109375 10.923828 C 3.883765 11.469052 4.0174498 12.144178 4.4335938 12.5625 A 1.0082374 1.0082374 0 0 1 4.4355469 12.564453 L 6.8710938 15 L 9.1289062 15 L 11.5625 12.566406 C 11.830593 12.299607 11.99279 11.928782 12.005859 11.550781 A 1.0082374 1.0082374 0 0 0 12.005859 11.546875 C 12.030788 10.742909 11.304352 9.994051 10.5 9.9941406 L 10.007812 9.9941406 L 10.007812 9 L 5.9921875 9 z "
           transform="matrix(0,-1,-1,0,15.000379,15.000379)"
           id="path996" />
        <path
           style="fill:url(#linearGradient983);fill-opacity:1;stroke:none;stroke-width:1px;stroke-linecap:butt;stroke-linejoin:miter;stroke-opacity:1"
           d="M 3.484375,4.0019531 A 0.49823071,0.49823071 0 0 0 3.1484375,4.1484375 l -2.5,2.5 a 0.49823071,0.49823071 0 0 0 0,0.703125 l 2.5,2.5 A 0.49823071,0.49823071 0 0 0 3.9980469,9.5 V 8 H 6.5 C 6.777,8 7,7.777 7,7.5 v -1 C 7,6.223 6.777,6 6.5,6 H 3.9980469 V 4.5 A 0.49823071,0.49823071 0 0 0 3.484375,4.0019531 Z"
           id="path998"
           inkscape:connector-curvature="0" />
      </g>
    </g>
  </g>
</svg>
